X: 43182
T: Wise Maid, The
R: reel
M: 4/4
K: Dmajor
|:F3G FEDE|FAAB AFED|d2 (3efg fdec|dBAF BE E2|
F3G FEDE|FAAB AFED|d2 (3efg fdec|dBAG FD D2:|
|:d2AG FDFA|dfaf gfeg|fAdf eAce|dfed cA A2|
BEGB ADFA|dfaf gfed|(3Bcd ce dBAG|FGEF D2:|

